svg/fluentui-system-icons/ic_fluent_text_position_through_20_regular.svg

<svg width="20" height="20" viewBox="0 0 20 20" fill="none" xmlns="http://www.w3.org/2000/svg">
<path d="M3 3.5C3 3.22386 3.22386 3 3.5 3H16.5C16.7761 3 17 3.22386 17 3.5C17 3.77614 16.7761 4 16.5 4H3.5C3.22386 4 3 3.77614 3 3.5ZM3.5 6H6.25777C6.05127 6.30851 5.8819 6.64397 5.75606 7H3.5C3.22386 7 3 6.77614 3 6.5C3 6.22386 3.22386 6 3.5 6ZM3.5 9H5.5V10H3.5C3.22386 10 3 9.77614 3 9.5C3 9.22386 3.22386 9 3.5 9ZM3.5 12H5.5V13H3.5C3.22386 13 3 12.7761 3 12.5C3 12.2239 3.22386 12 3.5 12ZM16.5 12H14.5V13H16.5C16.7761 13 17 12.7761 17 12.5C17 12.2239 16.7761 12 16.5 12ZM8.5 9V10H11.5V9H8.5ZM16.5 10H14.5V9H16.5C16.7761 9 17 9.22386 17 9.5C17 9.77614 16.7761 10 16.5 10ZM8.5 12V13H11.5V12H8.5ZM16.5 7H14.2439C14.1181 6.64397 13.9487 6.30851 13.7422 6H16.5C16.7761 6 17 6.22386 17 6.5C17 6.77614 16.7761 7 16.5 7ZM3.5 15H16.5C16.7761 15 17 15.2239 17 15.5C17 15.7761 16.7761 16 16.5 16H3.5C3.22386 16 3 15.7761 3 15.5C3 15.2239 3.22386 15 3.5 15ZM7.5 8.5C7.5 7.11929 8.61929 6 10 6C11.3807 6 12.5 7.11929 12.5 8.5V13.5C12.5 13.7761 12.7239 14 13 14C13.2761 14 13.5 13.7761 13.5 13.5V8.5C13.5 6.567 11.933 5 10 5C8.067 5 6.5 6.567 6.5 8.5V13.5C6.5 13.7761 6.72386 14 7 14C7.27614 14 7.5 13.7761 7.5 13.5V8.5Z" fill="#212121"/>
</svg>

<svg xmlns="http://www.w3.org/2000/svg" width="20" height="20"><path d="M3 3.5a.5.5 0 0 1 .5-.5h13a.5.5 0 0 1 0 1h-13a.5.5 0 0 1-.5-.5ZM3.5 6h2.758a4.484 4.484 0 0 0-.502 1H3.5a.5.5 0 0 1 0-1Zm0 3h2v1h-2a.5.5 0 0 1 0-1Zm0 3h2v1h-2a.5.5 0 0 1 0-1Zm13 0h-2v1h2a.5.5 0 0 0 0-1Zm-8-3v1h3V9h-3Zm8 1h-2V9h2a.5.5 0 0 1 0 1Zm-8 2v1h3v-1h-3Zm8-5h-2.256a4.483 4.483 0 0 0-.502-1H16.5a.5.5 0 0 1 0 1Zm-13 8h13a.5.5 0 0 1 0 1h-13a.5.5 0 0 1 0-1Zm4-6.5a2.5 2.5 0 0 1 5 0v5a.5.5 0 0 0 1 0v-5a3.5 3.5 0 1 0-7 0v5a.5.5 0 0 0 1 0v-5Z"/></svg>
